brandFactory_export/1.Light/Balanza_Justicia_Legal_1Light.svg

<?xml version="1.0" encoding="UTF-8"?>
<svg width="24px" height="24px" viewBox="0 0 24 24" version="1.1" xmlns="http://www.w3.org/2000/svg" xmlns:xlink="http://www.w3.org/1999/xlink">
    <title>1.Light/Balanza_Justicia_Legal_1Light</title>
    <g id="Symbols" stroke="none" stroke-width="1" fill="none" fill-rule="evenodd">
        <g id="1.Light/Balanza_Justicia_Legal_1Light" fill="#5CB615" fill-rule="nonzero">
            <path d="M22.0806723,16.0806723 C21.7714286,16.3932773 21.3210084,16.5714286 20.7462185,16.6117647 C20.6352941,16.6184874 19.6403361,16.6184874 19.5428571,16.6184874 C19.4722689,16.6184874 18.5008403,16.6184874 18.4067227,16.6151261 C17.7983193,16.5848739 17.3243697,16.4067227 17.0016807,16.0806723 C16.7193277,15.8016807 16.5445378,15.3983193 16.4739496,14.8907563 L22.6016807,14.8941176 C22.5344538,15.4016807 22.3596639,15.8016807 22.0806723,16.0806723 L22.0806723,16.0806723 Z M19.0554622,5.80168067 L22.3798319,13.8621849 L16.6218487,13.8588235 L19.0554622,5.80168067 Z M15.7277311,21.0722689 C16.3697479,21.0722689 16.8537815,21.2336134 17.1731092,21.5596639 C17.4151261,21.8084034 17.5697479,22.1512605 17.6369748,22.594958 L5.98319328,22.594958 C6.05042017,22.1546218 6.20504202,21.8084034 6.44705882,21.5596639 C6.76638655,21.2369748 7.25378151,21.0722689 7.89243697,21.0722689 L15.7277311,21.0722689 Z M10.9277311,4.77983193 L12.692437,4.77983193 L12.692437,20.0436975 L10.9277311,20.0436975 L10.9277311,4.77983193 Z M11.1260504,2.59831933 C10.9747899,2.44369748 10.9411765,2.13781513 10.9411765,1.90588235 C10.9411765,1.67731092 10.9747899,1.36470588 11.1260504,1.21008403 C11.2705882,1.06554622 11.5394958,1.03193277 11.7478992,1.02857143 L11.8420168,1.02857143 C12.0571429,1.02857143 12.3428571,1.05882353 12.4941176,1.21008403 C12.6453782,1.36470588 12.6789916,1.67731092 12.6789916,1.90588235 C12.6789916,2.13781513 12.6453782,2.44369748 12.4941176,2.59831933 C12.3428571,2.74957983 12.0571429,2.78319328 11.8420168,2.78319328 L11.7344538,2.78319328 C11.5260504,2.77647059 11.2672269,2.7394958 11.1260504,2.59831933 Z M7.00168067,13.8621849 L1.24369748,13.8655462 L4.56806723,5.80504202 L7.00168067,13.8621849 Z M6.62184874,16.0806723 C6.29915966,16.4067227 5.82184874,16.5848739 5.21344538,16.6151261 C5.11932773,16.6184874 4.14789916,16.6184874 4.08067227,16.6184874 C3.98319328,16.6184874 2.98487395,16.6184874 2.87731092,16.6117647 C2.30252101,16.5714286 1.85210084,16.3932773 1.54285714,16.0806723 C1.2605042,15.8016807 1.08907563,15.4016807 1.01848739,14.8941176 L7.14621849,14.8907563 C7.0789916,15.3983193 6.90420168,15.8016807 6.62184874,16.0806723 L6.62184874,16.0806723 Z M23.6235294,14.3764706 C23.6235294,14.3529412 23.6134454,14.3327731 23.610084,14.3092437 C23.6033613,14.2621849 23.6,14.2151261 23.5831933,14.1747899 L19.7344538,4.84033613 C20.1714286,4.90756303 20.5478992,5.04537815 20.8067227,5.30084034 C20.9008403,5.39831933 21.0252101,5.44537815 21.1495798,5.44537815 C21.2806723,5.44537815 21.4084034,5.39159664 21.5058824,5.28739496 C21.6941176,5.0789916 21.6907563,4.75630252 21.4890756,4.55798319 C20.9983193,4.06722689 20.3226891,3.79495798 19.4823529,3.75462185 C19.4184874,3.7512605 14.5142857,3.74789916 12.3831933,3.74789916 C12.7058824,3.67731092 12.9747899,3.54621849 13.1798319,3.33781513 C13.5058824,3.01176471 13.6672269,2.53109244 13.6672269,1.90588235 C13.6672269,1.28067227 13.502521,0.796638655 13.1798319,0.47394958 C12.8705882,0.157983193 12.4201681,0 11.8420168,0 L11.7411765,0 C11.1831933,0.00672268908 10.7462185,0.164705882 10.4403361,0.47394958 C10.1176471,0.8 9.95294118,1.28067227 9.95294118,1.90588235 C9.95294118,2.53445378 10.1176471,3.01176471 10.4403361,3.33781513 C10.6453782,3.54285714 10.9142857,3.67731092 11.2403361,3.74789916 C9.1092437,3.74789916 4.20840336,3.7512605 4.14117647,3.75462185 C3.30084034,3.79495798 2.62521008,4.06386555 2.13445378,4.55798319 C1.93613445,4.75630252 1.93277311,5.0789916 2.11764706,5.28739496 C2.21512605,5.39159664 2.34621849,5.44537815 2.47394958,5.44537815 C2.59831933,5.44537815 2.71932773,5.39831933 2.81680672,5.30084034 C3.07226891,5.04537815 3.4487395,4.90756303 3.88907563,4.84033613 L0.043697479,14.1747899 C0.0235294118,14.2151261 0.0235294118,14.2621849 0.0168067227,14.3092437 C0.0134453782,14.3327731 0.00336134454,14.3529412 0.00336134454,14.3764706 L0.00336134454,14.3798319 C0.00336134454,15.4285714 0.292436975,16.2521008 0.860504202,16.8268908 C1.34117647,17.307563 1.99663866,17.5831933 2.81680672,17.6403361 C2.91092437,17.6470588 3.97983193,17.6504202 4.08403361,17.6504202 C4.15462185,17.6504202 5.18655462,17.6504202 5.25714286,17.6470588 C6.11764706,17.6067227 6.81008403,17.3277311 7.30756303,16.8268908 C7.86890756,16.2621849 8.15462185,15.4588235 8.16470588,14.4302521 L8.16470588,14.4168067 C8.16470588,14.4 8.16806723,14.389916 8.16806723,14.3764706 C8.16806723,14.3462185 8.15798319,14.3226891 8.15462185,14.2957983 C8.1512605,14.2689076 8.15462185,14.2453782 8.14789916,14.2218487 L5.29747899,4.78319328 C6.49747899,4.78319328 8.42016807,4.77983193 9.94621849,4.77983193 L9.94621849,20.0436975 L7.89579832,20.0436975 C6.99159664,20.0436975 6.27563025,20.3058824 5.76470588,20.8201681 C5.23361345,21.3546218 4.96134454,22.1243697 4.96134454,23.1058824 C4.96134454,23.3915966 5.18319328,23.6201681 5.45546218,23.6201681 L18.1747899,23.6201681 C18.4470588,23.6201681 18.6689076,23.3915966 18.6689076,23.1058824 C18.6689076,22.1243697 18.4,21.3546218 17.8689076,20.8201681 C17.3579832,20.3058824 16.6386555,20.0436975 15.7344538,20.0436975 L13.6840336,20.0436975 L13.6840336,4.77983193 C15.210084,4.77983193 17.1327731,4.78319328 18.3327731,4.78319328 L15.4857143,14.2218487 C15.4789916,14.2453782 15.4823529,14.2689076 15.4789916,14.2957983 C15.4756303,14.3226891 15.4621849,14.3462185 15.4621849,14.3764706 C15.4621849,14.389916 15.4655462,14.4033613 15.4655462,14.4168067 L15.4655462,14.4302521 C15.4756303,15.4554622 15.7613445,16.2621849 16.3226891,16.8268908 C16.8235294,17.3277311 17.512605,17.6067227 18.3731092,17.6470588 C18.4470588,17.6504202 19.4756303,17.6504202 19.5495798,17.6504202 C19.6504202,17.6504202 20.7193277,17.6470588 20.8168067,17.6403361 C21.6336134,17.5831933 22.292437,17.307563 22.7697479,16.8268908 C23.3344538,16.2521008 23.6235294,15.4285714 23.6235294,14.3764706 L23.6235294,14.3764706 Z" id="Balanza_Justicia_Legal_1Light"></path>
        </g>
    </g>
</svg>

<svg width="24" height="24" viewBox="0 0 24 24" xmlns="http://www.w3.org/2000/svg"><path d="M22.08 16.08c-.309.313-.759.491-1.334.532-.11.006-1.106.006-1.203.006-.07 0-1.042 0-1.136-.003-.609-.03-1.083-.208-1.405-.534-.283-.28-.457-.683-.528-1.19l6.128.003c-.068.508-.242.908-.521 1.187zM19.056 5.803l3.325 8.06-5.758-.003 2.433-8.057zm-3.327 15.27c.642 0 1.126.162 1.445.488.242.248.397.591.464 1.035H5.983c.067-.44.222-.787.464-1.035.32-.323.807-.488 1.445-.488h7.836zm-4.8-16.292h1.764v15.264h-1.764V4.78zm.198-2.182c-.151-.154-.185-.46-.185-.692 0-.229.034-.541.185-.696.145-.144.413-.178.622-.181h.094c.215 0 .5.03.652.181.151.155.185.467.185.696 0 .232-.034.538-.185.692-.151.152-.437.185-.652.185h-.108c-.208-.007-.467-.044-.608-.185zM7.002 13.862l-5.758.004 3.324-8.061 2.434 8.057zm-.38 2.219c-.323.326-.8.504-1.409.534-.094.003-1.065.003-1.132.003-.098 0-1.096 0-1.204-.006-.574-.04-1.025-.219-1.334-.531-.282-.28-.454-.68-.525-1.187l6.128-.003c-.067.507-.242.91-.524 1.19zm17.002-1.705c0-.023-.01-.043-.014-.067-.007-.047-.01-.094-.027-.134L19.734 4.84c.437.068.814.205 1.073.46a.473.473 0 00.343.145.485.485 0 00.356-.158.528.528 0 00-.017-.729c-.49-.49-1.166-.763-2.007-.803-.064-.004-4.968-.007-7.099-.007.323-.07.592-.202.797-.41.326-.326.487-.807.487-1.432 0-.625-.164-1.11-.487-1.432C12.87.158 12.42 0 11.842 0h-.1c-.559.007-.996.165-1.302.474-.322.326-.487.807-.487 1.432 0 .628.165 1.106.487 1.432.205.205.474.34.8.41-2.13 0-7.032.003-7.099.007-.84.04-1.516.309-2.007.803a.535.535 0 00-.016.73.479.479 0 00.7.013c.254-.256.63-.393 1.071-.46L.044 14.174c-.02.04-.02.087-.027.134-.004.024-.014.044-.014.067v.004c0 1.049.29 1.872.858 2.447.48.48 1.136.756 1.956.813.094.007 1.163.01 1.267.01.07 0 1.103 0 1.173-.003.86-.04 1.553-.32 2.05-.82.562-.565.848-1.368.858-2.397v-.013c0-.017.003-.027.003-.04 0-.03-.01-.054-.013-.081-.004-.027 0-.05-.007-.074l-2.85-9.439 4.648-.003v15.264h-2.05c-.904 0-1.62.262-2.131.776-.531.535-.804 1.304-.804 2.286 0 .286.222.514.494.514h12.72a.504.504 0 00.494-.514c0-.982-.269-1.751-.8-2.286-.511-.514-1.23-.776-2.135-.776h-2.05V4.78l4.649.003-2.847 9.439c-.007.023-.004.047-.007.074-.003.027-.017.05-.017.08 0 .014.004.027.004.04v.014c.01 1.025.295 1.832.857 2.397.5.5 1.19.78 2.05.82.074.003 1.103.003 1.177.003.1 0 1.17-.003 1.267-.01.817-.057 1.475-.332 1.953-.813.564-.575.854-1.398.854-2.45z" fill="#5CB615" fill-rule="nonzero"/></svg>
